svgs/thin/keyboard-left.svg

<svg xmlns="http://www.w3.org/2000/svg" viewBox="0 0 640 512"><!--! Font Awesome Pro 6.3.0 by @fontawesome - https://fontawesome.com License - https://fontawesome.com/license (Commercial License) Copyright 2023 Fonticons, Inc. --><path d="M344 288h16C373.3 288 384 277.3 384 264v-16C384 234.7 373.3 224 360 224h-16C330.7 224 320 234.7 320 248v16C320 277.3 330.7 288 344 288zM336 248c0-4.41 3.59-8 8-8h16c4.412 0 8 3.59 8 8v16c0 4.41-3.588 8-8 8h-16c-4.41 0-8-3.59-8-8V248zM264 320h-16C234.7 320 224 330.7 224 344v16C224 373.3 234.7 384 248 384h16C277.3 384 288 373.3 288 360v-16C288 330.7 277.3 320 264 320zM272 360c0 4.41-3.588 8-8 8h-16c-4.41 0-8-3.59-8-8v-16c0-4.41 3.59-8 8-8h16c4.412 0 8 3.59 8 8V360zM344 192h16C373.3 192 384 181.3 384 168v-16C384 138.7 373.3 128 360 128h-16C330.7 128 320 138.7 320 152v16C320 181.3 330.7 192 344 192zM336 152c0-4.41 3.59-8 8-8h16c4.412 0 8 3.59 8 8v16c0 4.41-3.588 8-8 8h-16c-4.41 0-8-3.59-8-8V152zM456 224h-16C426.7 224 416 234.7 416 248v16C416 277.3 426.7 288 440 288h16C469.3 288 480 277.3 480 264v-16C480 234.7 469.3 224 456 224zM464 264c0 4.41-3.588 8-8 8h-16c-4.41 0-8-3.59-8-8v-16c0-4.41 3.59-8 8-8h16c4.412 0 8 3.59 8 8V264zM552 320h-16C522.7 320 512 330.7 512 344v16c0 13.25 10.75 24 24 24h16c13.26 0 24-10.75 24-24v-16C576 330.7 565.3 320 552 320zM560 360c0 4.41-3.588 8-8 8h-16c-4.41 0-8-3.59-8-8v-16c0-4.41 3.59-8 8-8h16c4.412 0 8 3.59 8 8V360zM552 224h-16C522.7 224 512 234.7 512 248v16C512 277.3 522.7 288 536 288h16C565.3 288 576 277.3 576 264v-16C576 234.7 565.3 224 552 224zM560 264c0 4.41-3.588 8-8 8h-16c-4.41 0-8-3.59-8-8v-16c0-4.41 3.59-8 8-8h16c4.412 0 8 3.59 8 8V264zM552 128h-16C522.7 128 512 138.7 512 152v16C512 181.3 522.7 192 536 192h16C565.3 192 576 181.3 576 168v-16C576 138.7 565.3 128 552 128zM560 168c0 4.41-3.588 8-8 8h-16c-4.41 0-8-3.59-8-8v-16c0-4.41 3.59-8 8-8h16c4.412 0 8 3.59 8 8V168zM575.1 64h-352c-35.35 0-64 28.65-64 64v256c0 35.35 28.65 64 64 64h352c35.35 0 64-28.65 64-64V128C639.1 92.65 611.3 64 575.1 64zM624 384c0 26.47-21.53 48-48 48H224c-26.47 0-48-21.53-48-48V128c0-26.47 21.53-48 48-48h352c26.47 0 48 21.53 48 48V384zM264 128h-16C234.7 128 224 138.7 224 152v16C224 181.3 234.7 192 248 192h16C277.3 192 288 181.3 288 168v-16C288 138.7 277.3 128 264 128zM272 168c0 4.41-3.588 8-8 8h-16C243.6 176 240 172.4 240 168v-16c0-4.41 3.59-8 8-8h16c4.412 0 8 3.59 8 8V168zM264 224h-16C234.7 224 224 234.7 224 248v16C224 277.3 234.7 288 248 288h16C277.3 288 288 277.3 288 264v-16C288 234.7 277.3 224 264 224zM272 264c0 4.41-3.588 8-8 8h-16C243.6 272 240 268.4 240 264v-16c0-4.41 3.59-8 8-8h16c4.412 0 8 3.59 8 8V264zM456 320h-112C330.7 320 320 330.7 320 344v16c0 13.25 10.75 24 24 24h112c13.26 0 24-10.75 24-24v-16C480 330.7 469.3 320 456 320zM464 360c0 4.41-3.588 8-8 8h-112c-4.41 0-8-3.59-8-8v-16c0-4.41 3.59-8 8-8h112c4.412 0 8 3.59 8 8V360zM456 128h-16C426.7 128 416 138.7 416 152v16C416 181.3 426.7 192 440 192h16C469.3 192 480 181.3 480 168v-16C480 138.7 469.3 128 456 128zM464 168c0 4.41-3.588 8-8 8h-16c-4.41 0-8-3.59-8-8v-16c0-4.41 3.59-8 8-8h16c4.412 0 8 3.59 8 8V168zM116.5 155.2c-2.469-1.076-5.081-1.6-7.673-1.6c-4.758 0-9.448 1.764-13.06 5.123L6.138 241.9C2.056 245.7 .0106 250.9 .0002 255.1c-.0105 5.151 2.035 10.27 6.137 14.08L95.74 353.3c3.617 3.359 8.309 5.125 13.07 5.125c2.59 0 5.202-.5234 7.669-1.598c7-3.051 11.53-9.965 11.53-17.6V172.8C127.1 165.2 123.5 158.3 116.5 155.2zM112 339.2c0 1.275-.7539 2.428-3.195 3.201c-.4727 0-1.383-.1113-2.18-.8496L17.03 258.4C16.18 257.6 15.1 256.6 15.1 256s.1797-1.564 1.025-2.35l89.6-83.2c.793-.7363 1.701-.8457 2.174-.8457l1.283 .2676C111.2 170.4 112 171.5 112 172.8V339.2z"/></svg>

<svg xmlns="http://www.w3.org/2000/svg" viewBox="0 0 640 512"><!--! Font Awesome Pro 6.4.0 by @fontawesome - https://fontawesome.com License - https://fontawesome.com/license (Commercial License) Copyright 2023 Fonticons, Inc. --><path d="M576 80c26.5 0 48 21.5 48 48V384c0 26.5-21.5 48-48 48H224c-26.5 0-48-21.5-48-48V128c0-26.5 21.5-48 48-48H576zM224 64c-35.3 0-64 28.7-64 64V384c0 35.3 28.7 64 64 64H576c35.3 0 64-28.7 64-64V128c0-35.3-28.7-64-64-64H224zm40 272c4.4 0 8 3.6 8 8v16c0 4.4-3.6 8-8 8H248c-4.4 0-8-3.6-8-8V344c0-4.4 3.6-8 8-8h16zm-16-16c-13.3 0-24 10.7-24 24v16c0 13.3 10.7 24 24 24h16c13.3 0 24-10.7 24-24V344c0-13.3-10.7-24-24-24H248zm96 16H456c4.4 0 8 3.6 8 8v16c0 4.4-3.6 8-8 8H344c-4.4 0-8-3.6-8-8V344c0-4.4 3.6-8 8-8zm-24 8v16c0 13.3 10.7 24 24 24H456c13.3 0 24-10.7 24-24V344c0-13.3-10.7-24-24-24H344c-13.3 0-24 10.7-24 24zM264 240c4.4 0 8 3.6 8 8v16c0 4.4-3.6 8-8 8H248c-4.4 0-8-3.6-8-8V248c0-4.4 3.6-8 8-8h16zm-16-16c-13.3 0-24 10.7-24 24v16c0 13.3 10.7 24 24 24h16c13.3 0 24-10.7 24-24V248c0-13.3-10.7-24-24-24H248zm96 16h16c4.4 0 8 3.6 8 8v16c0 4.4-3.6 8-8 8H344c-4.4 0-8-3.6-8-8V248c0-4.4 3.6-8 8-8zm-24 8v16c0 13.3 10.7 24 24 24h16c13.3 0 24-10.7 24-24V248c0-13.3-10.7-24-24-24H344c-13.3 0-24 10.7-24 24zm136-8c4.4 0 8 3.6 8 8v16c0 4.4-3.6 8-8 8H440c-4.4 0-8-3.6-8-8V248c0-4.4 3.6-8 8-8h16zm-16-16c-13.3 0-24 10.7-24 24v16c0 13.3 10.7 24 24 24h16c13.3 0 24-10.7 24-24V248c0-13.3-10.7-24-24-24H440zm96 16h16c4.4 0 8 3.6 8 8v16c0 4.4-3.6 8-8 8H536c-4.4 0-8-3.6-8-8V248c0-4.4 3.6-8 8-8zm-24 8v16c0 13.3 10.7 24 24 24h16c13.3 0 24-10.7 24-24V248c0-13.3-10.7-24-24-24H536c-13.3 0-24 10.7-24 24zm40 88c4.4 0 8 3.6 8 8v16c0 4.4-3.6 8-8 8H536c-4.4 0-8-3.6-8-8V344c0-4.4 3.6-8 8-8h16zm-16-16c-13.3 0-24 10.7-24 24v16c0 13.3 10.7 24 24 24h16c13.3 0 24-10.7 24-24V344c0-13.3-10.7-24-24-24H536zM248 144h16c4.4 0 8 3.6 8 8v16c0 4.4-3.6 8-8 8H248c-4.4 0-8-3.6-8-8V152c0-4.4 3.6-8 8-8zm-24 8v16c0 13.3 10.7 24 24 24h16c13.3 0 24-10.7 24-24V152c0-13.3-10.7-24-24-24H248c-13.3 0-24 10.7-24 24zm136-8c4.4 0 8 3.6 8 8v16c0 4.4-3.6 8-8 8H344c-4.4 0-8-3.6-8-8V152c0-4.4 3.6-8 8-8h16zm-16-16c-13.3 0-24 10.7-24 24v16c0 13.3 10.7 24 24 24h16c13.3 0 24-10.7 24-24V152c0-13.3-10.7-24-24-24H344zm96 16h16c4.4 0 8 3.6 8 8v16c0 4.4-3.6 8-8 8H440c-4.4 0-8-3.6-8-8V152c0-4.4 3.6-8 8-8zm-24 8v16c0 13.3 10.7 24 24 24h16c13.3 0 24-10.7 24-24V152c0-13.3-10.7-24-24-24H440c-13.3 0-24 10.7-24 24zm136-8c4.4 0 8 3.6 8 8v16c0 4.4-3.6 8-8 8H536c-4.4 0-8-3.6-8-8V152c0-4.4 3.6-8 8-8h16zm-16-16c-13.3 0-24 10.7-24 24v16c0 13.3 10.7 24 24 24h16c13.3 0 24-10.7 24-24V152c0-13.3-10.7-24-24-24H536zM101.7 173.7c3.1-3.1 3.1-8.2 0-11.3s-8.2-3.1-11.3 0l-88 88c-3.1 3.1-3.1 8.2 0 11.3l88 88c3.1 3.1 8.2 3.1 11.3 0s3.1-8.2 0-11.3L19.3 256l82.3-82.3z"/></svg>
